X: 230
T: Upstairs In A Tent
T:Tie the Bonnet
C:O'Neill Dancemusic of Ireland
R: reel
M: 4/4
L: 1/8
K:Amix
"A"A3g "D"fd"A"ec|"Am"A2 A=c "G"BGGB|"A"~A3g "D"fdef|1 "G"~g3d BGGB:|2 ~g3d BG(3GGG||
|:"D"fgaf "G"gfed|"A"(3cBA eA fAeA|"D"faaf "G"gfef|1 ~g3d BG(3GGG:|2 ~g3d BGGB||


